svgs/sharp-regular/plug-circle-exclamation.svg

<svg xmlns="http://www.w3.org/2000/svg" viewBox="0 0 576 512"><!--! Font Awesome Pro 6.6.0 by @fontawesome - https://fontawesome.com License - https://fontawesome.com/license (Commercial License) Copyright 2024 Fonticons, Inc. --><path d="M120 24l0-24L72 0l0 24 0 88 48 0 0-88zm192 0l0-24L264 0l0 24 0 88 48 0 0-88zM24 144L0 144l0 48 24 0 8 0 0 64c0 80.2 59 146.6 136 158.2l0 97.8 48 0 0-97.8c15.2-2.3 29.7-6.7 43.1-12.9c-2.1-10.8-3.1-21.9-3.1-33.3c0-7.1 .4-14.1 1.2-20.9C238.9 360.2 216.3 368 192 368c-61.9 0-112-50.1-112-112l0-64 224 0 0 55.2c13.8-14.6 30-26.8 48-36l0-19.2 8 0 24 0 0-48-24 0-8 0-48 0L80 144l-48 0-8 0zM432 512a144 144 0 1 0 0-288 144 144 0 1 0 0 288zm16-64l-32 0 0-32 32 0 0 32zm0-176l0 16 0 80 0 16-32 0 0-16 0-80 0-16 32 0z"/></svg>

<svg xmlns="http://www.w3.org/2000/svg" viewBox="0 0 576 512"><!--! Font Awesome Pro 6.4.0 by @fontawesome - https://fontawesome.com License - https://fontawesome.com/license (Commercial License) Copyright 2023 Fonticons, Inc. --><path d="M120 24V0H72V24v88h48V24zm192 0V0H264V24v88h48V24zM24 144H0v48H24h8v64c0 80.2 59 146.6 136 158.2V512h48V414.2c15.2-2.3 29.7-6.7 43.1-12.9c-2.1-10.8-3.1-21.9-3.1-33.3c0-7.1 .4-14.1 1.2-20.9C238.9 360.2 216.3 368 192 368c-61.9 0-112-50.1-112-112V192H304v55.2c13.8-14.6 30-26.8 48-36V192h8 24V144H360h-8H304 80 32 24zM432 512a144 144 0 1 0 0-288 144 144 0 1 0 0 288zm16-64H416V416h32v32zm0-176v16 80 16H416V368 288 272h32z"/></svg>
